X:1
T:Title
%%score 1 2 3
L:1/8
Q:1/4=135
M:4/4
K:Bb
V:1 treble nm="Grand Piano"
V:2 bass nm="Grand Piano, Melody"
V:3 bass nm="Grand Piano"
V:1
 z4 d4 | d2 d2 c2 Bc | d2 dc d2 fg | f2 g2 d2 c2 | d4 d4 | d2 d2 c2 Bc | d2 dc d2 fg | %7
 f2 g2 d2 c2 | d8 | z4 f4 | g2 g2 f2 f2 | d2 c2 d2 A2 | B2 c2 d2 f2 | g4 d4 | d2 d2 c2 Bc | %15
 d2 dc d2 fg | f2 g2 d2 c2 | d8 |] %18
V:2
 z4 G,4 | B,2 D2 A,2 CA, | G,2 G,F, D,2 F,G, | A,2 C2 D2 A,2 | G,4 G,4 | B,2 D2 A,2 CA, | %6
 G,2 G,F, D,2 F,G, | A,2 C2 D2 A,2 | G,8 | z4[K:treble] C4 | D2 C2 F2 E2 | D2 A,2 G,2 C2 | %12
 D2 C2 F2 E2 | D4[K:bass] G,4 | B,2 D2 A,2 CA, | G,2 G,F, D,2 F,G, | A,2 C2 D2 A,2 | G,8 |] %18
V:3
 z4 G,4 | G,2 G,2 F,2 F,C, | D,2 D,F, G,2 F,G, | A,2 F,2 D,2 F,2 | G,4 G,4 | G,2 G,2 F,2 F,C, | %6
 D,2 D,F, G,2 F,G, | A,2 F,2 D,2 F,2 | G,8 | z4 F,4 | G,2 F,2 B,2 A,2 | G,2 F,2 D,2 F,2 | %12
 G,2 F,2 B,2 A,2 | G,4 G,4 | G,2 G,2 F,2 F,C, | D,2 D,F, G,2 F,G, | A,2 F,2 D,2 F,2 | G,8 |] %18

